X:1
T:Grosz  Ehr hat müh
T:Melcchior Franck
T:Source : Tricinia nova---Nürnberg---A.Wagenmann---1611. Editor : André Vierendeels (31/03/17).
T:Notes : Original clefs : C1, C1, F4 Editorial accidentals above the staff Text Middle German m 4 in A : first "E" notated as "D" in original print
T:Grosz  Ehr hat müh
T:©
T:©
T:©
C:Melcchior Franck
Z:©
%%score [ 1 2 3 ]
L:1/8
Q:1/4=100
M:2/2
K:F
V:1 treble nm="Soprano" snm="S"
V:2 treble nm="Alto" snm="A"
V:3 bass nm="Bass" snm="B"
V:1
"^1)" d8 | c4 d4 | B2 c2 d2 A2 | c2 GA Bc d2- | d2 cd _e2 e2 | d4 z2 _e2 |"^b" Bcde f2 c2 | %7
w: Grosz|Ehr hat|müh und pein, lasz|dirs nicht _ _ _ _|_ sel- * * tzam|sein, lasz|dirs _ _ _ _ nicht|
w: Wer|lust zu|flus- sen hatb bit-|ters dar- * * * *|* ne- * * ben|steht, bit-|ters _ _ _ _ dar-|
 _edcB A2 G2 | A4 A4 |[M:2/4] G4 ::[M:2/2] z2 A2 B2 A2 | B2 c2 F4 | F2 d2 B3 B | B2 d2 c4 | %14
w: sel- * * * * *|* tzam|sein,|bald nach dem|Win- ter kal-|te, kommt Som- mer|wol ge- fal-|
w: ne- * * * * *|* ben|steht,|wer ei- nes|will ge- nies-|sen, musz sich keins|lan ver- dries-|
 d2 d2 d3 c | d2 B2 A4 | A2 A2 A2 B2 | c2 c2 B4 | A2 z G A2 B2 | c6 B2 | A4 !fermata!G4 :| %21
w: te, nach un- ge-|wit- ter schwe-|re kommt die Son-|ne da he-|re die Son- ne|da- he-|* re.|
w: sen, es geht gens|an die al-|ten fütz thu das|bit- ter hal-|te,, zu das bt-|ter hal-|* te,.|
V:2
"^2)""^1)" z4 B4 | G2 A4 B2- | B2 G2 ^F4 | z2 E2 G2 DE | FGAB c2 c2- | c2 =B2 c4 | G2 B2 FGAB | %7
w: Grosz|Ehr hat müh|_ und pein,|lasz dirs nicht- *|* * * * * sel-|* tzam sein,|lasz dirs nicht _ _ _|
w: Eins|je- den Bau-|* mes- frucht|ist herb wann _|mans _ _ _ _ ver-|* * sucht,|ist herb wann _ _ _|
"^#" c2 AG F2 G2- | G2 ^FE F2 F2 |[M:2/4] G4 ::[M:2/2]"^-natural" z2 F2 D2 F2 | _E2 E2 D4 | %12
w: sel- * * * *|* * * * tzam|sein|bald nach dem|Win- ter kal-|
w: mans _ _ _ ver-|* * * * ver-|sucht,|eh sie thut|zei- tig wer-|
 D2 B2 G3 F | G2 B2 A4 | B2 F2 F2 F2 | F2 E2 F4 | C4 z2 E2 | E2 ^F2 G2 D2 | %18
w: te, kommt Som- mer|wol ge- fal-|te, nach un- ge|wit- ter schwe-|re kommt|die Son- ne da-|
w: den, man wirfft sie|auff die Er-|den, wirdt a- ber|suüsz be- fun-|den, zu|rech- ter zeit und|
"^-natural" D2 E2 F2 D2 | EFGA ^F2 G2- | G2 ^F2 !fermata!G4 :| %21
w: he- re, die Son-|ne _ _ _ da- he-|* * re.|
w: stun- den, rech- ter|zeit _ _ _ und stun-|* * den.|
V:3
"^3)""^1)""^4)""^5)" z4 G,4 | E,2 F,4 G,2- | G,2 _E,2 D,4 | A,,2 C,2 G,,A,,B,,C, | %4
w: Grosz|Ehr hat müh|_ und pein,|lasz dirs nicht _ _ _|
w: Al-|so, wer in|_ liebs spil,|be- gert zu _ _ _|
w: Dar-|umb der hoff-|* nung g'leb,|mit freu- den _ _ _|
 D,E, F,2 C,D,_E,F, | G,2 G,,2 C,2 C,2 | _E,2 B,,C, D,E, F,2 | C,2 C,2 D,2 _E,2 | D,4 D,4 | %9
w: _ _ _ sel- * * *|* tzam sein, lasz|dirs nicht _ _ _ _|sel- tzam sein, nicht|sel- tzam|
w: _ _ _ _ _ _ _|gwin- nen vil, be-|gert zu _ _ _ _|gwin- nen vil, zu|gwin- nen|
w: _ _ _ _ _ _ _|dar nach streb, mit|freu- den _ _ _ _|dar nach _ streb,|dar nach|
[M:2/4] G,,4 ::[M:2/2] z2 D,2 G,2 F,2 | G,2 A,2 B,4 | B,,2 B,,2 _E,3 D, | _E,2 B,,2 F,4 | %14
w: sein,|bald nach dem|Win- ter kal-|te, kommt Som- mer|wol ge- fal-|
w: vil;|den thut es|schwer an- kom-|men, all freud wird|ihm be- nom-|
w: streb,|ob- schon _|was bleibt da-|bin- nen, tuts _|_ die Harz|
 B,,2 B,,2 B,3 A, | B,2 G,2 F,4 | F,2 F,2 F,2 G,2 | A,4 z2 G,2 |"^-natural" F,2 E,2 D,4 | %19
w: te; nach un- ge|wit- ter schwe-|re, kommmt die Son-|ne kommt|die Son- ne|
w: men, wenn ers ein|weil ge- woh-|net, wirdt es him|wol, wirdtt|es him wol|
w: ü- ber- win- *|den, ein streich|kein bauw thut fel-|len, ge-|duld hilfft man-|
 C,4 D,4- | D,4 !fermata!G,,4 :| %21
w: da- he-|* re.|
w: be- loh-|* net.|
w: chen gfel-|* len.|

